X: 217a
T: The Crooked Road to Dublin
M:4/4
R:reel
L:1/8
K:G
"G"G3G "D"FGAF|"G"G2FG "D"AdcA|"G"GBAG "D"FGAg|fdcA dBcA|
"G"GBAG "D"FGAF|"G"GBAc "D"BdcA|"G"GBAG "D"FGAg|fdcA d2Bc||
"G"d~g3 "D"fgaf|"G"d~g3 "D"agfe|"G"d~g3 "D"fgag|fdcA d2Bc|
"G"d~g3 "D"fgaf|"G"d~g3 "D"afga|"G"bgaf gbag|"D"fdcA dBcA||


